src/mimetypes/mimetypes-x-content-form-search.svg

<?xml version="1.0" encoding="utf-8"?>
<!-- Generator: Adobe Illustrator 19.1.1, SVG Export Plug-In . SVG Version: 6.00 Build 0)  -->
<svg version="1.1" id="Ebene_1" xmlns="http://www.w3.org/2000/svg" xmlns:xlink="http://www.w3.org/1999/xlink" x="0px" y="0px"
	 viewBox="0 0 16 16" enable-background="new 0 0 16 16" xml:space="preserve">
<g>
	<path fill="#FFFFFF" d="M1,1v14h10.5C9.567,15,8,13.433,8,11.5S9.567,8,11.5,8S15,9.567,15,11.5V1H1z M15,11.5
		c-0.001,0.009-0.001,0.018-0.002,0.027H15V11.5z"/>
	<path fill="#B9B9B9" d="M3,7v4h5.039C8.287,9.279,9.761,8.002,11.5,8c0.519,0.001,1.032,0.118,1.5,0.342V7H3z"/>
	<rect x="3" y="12" fill="#5599FF" width="4" height="1"/>
	<path fill="#999999" d="M1,1v1v12v1h1h9.5c-0.916,0-1.795-0.359-2.449-1H2V2h12v7.055c0.64,0.653,0.999,1.531,1,2.445V1H2H1z
		 M15,11.5c-0.001,0.009-0.001,0.018-0.002,0.027H15V11.5z"/>
	<rect x="3" y="3" fill="#B9B9B8" width="8" height="1"/>
	<rect x="3" y="5" fill="#B9B9B9" width="8" height="1"/>
	<path fill="#E8A33D" d="M12.666,12.665L12.666,12.665c0.261-0.261,0.709-0.237,1,0.055l2.098,2.098
		c0.291,0.291,0.316,0.739,0.055,1.001l0,0c-0.261,0.261-0.709,0.237-1-0.055l-2.098-2.098
		C12.429,13.374,12.405,12.926,12.666,12.665z"/>
	<circle fill="#5599FF" cx="11.5" cy="11.5" r="2.5"/>
	<circle fill="#ABD7FF" cx="11.5" cy="11.5" r="1.5"/>
	<ellipse opacity="0.604" fill="#FFFFFF" enable-background="new    " cx="12" cy="11" rx="0.5" ry="0.5"/>
</g>
</svg>

<?xml version="1.0" encoding="UTF-8" standalone="no"?>
<svg
   xmlns:dc="http://purl.org/dc/elements/1.1/"
   xmlns:cc="http://creativecommons.org/ns#"
   xmlns:rdf="http://www.w3.org/1999/02/22-rdf-syntax-ns#"
   xmlns:svg="http://www.w3.org/2000/svg"
   xmlns="http://www.w3.org/2000/svg"
   xmlns:sodipodi="http://sodipodi.sourceforge.net/DTD/sodipodi-0.dtd"
   xmlns:inkscape="http://www.inkscape.org/namespaces/inkscape"
   version="1.1"
   id="svg2"
   viewBox="0 0 16 16"
   height="16"
   width="16"
   inkscape:version="0.91 r13725"
   sodipodi:docname="mimetypes-x-content-form-search.svg">
  <sodipodi:namedview
     pagecolor="#ffffff"
     bordercolor="#666666"
     borderopacity="1"
     objecttolerance="10"
     gridtolerance="10"
     guidetolerance="10"
     inkscape:pageopacity="0"
     inkscape:pageshadow="2"
     inkscape:window-width="1920"
     inkscape:window-height="1027"
     id="namedview16"
     showgrid="false"
     inkscape:zoom="45.254834"
     inkscape:cx="10.57392"
     inkscape:cy="7.9730658"
     inkscape:window-x="-8"
     inkscape:window-y="-8"
     inkscape:window-maximized="1"
     inkscape:current-layer="svg2" />
  <defs
     id="defs4" />
  <metadata
     id="metadata7">
    <rdf:RDF>
      <cc:Work
         rdf:about="">
        <dc:format>image/svg+xml</dc:format>
        <dc:type
           rdf:resource="http://purl.org/dc/dcmitype/StillImage" />
        <dc:title></dc:title>
      </cc:Work>
    </rdf:RDF>
  </metadata>
  <path
     style="opacity:1;fill:#ffffff;fill-opacity:1;stroke:none;stroke-width:1;stroke-linecap:square;stroke-linejoin:miter;stroke-miterlimit:4;stroke-dasharray:none;stroke-dashoffset:0;stroke-opacity:1"
     d="M 1 1 L 1 15 L 11.5 15 A 3.5 3.5 0 0 1 8 11.5 A 3.5 3.5 0 0 1 11.5 8 A 3.5 3.5 0 0 1 15 11.5 L 15 1 L 1 1 z M 15 11.5 A 3.5 3.5 0 0 1 14.998047 11.527344 L 15 11.527344 L 15 11.5 z "
     id="rect4144" />
  <g
     style="stroke:#000000;stroke-width:3.20000005;stroke-miterlimit:2.5;stroke-dasharray:none;stroke-opacity:1"
     id="g4198-21"
     transform="matrix(0,0.625,-0.625,0,3.5704222,33.125279)" />
  <g
     style="stroke:#000000;stroke-width:3.20000005;stroke-miterlimit:4;stroke-dasharray:none;stroke-opacity:0.68488746"
     id="g4198-3-0"
     transform="matrix(0,0.625,-0.625,0,3.570422,33.125279)" />
  <g
     style="stroke:#000000;stroke-width:3.20000005;stroke-miterlimit:2.5;stroke-dasharray:none;stroke-opacity:1"
     id="g4198-2-7"
     transform="matrix(0,0.625,-0.625,0,3.5704222,33.125279)" />
  <g
     id="g4198-3-6-3-0"
     transform="matrix(0,-0.625,0.625,0,11.695429,-17.165997)" />
  <path
     style="opacity:1;fill:#b9b9b9;fill-opacity:1;stroke:#8c8c8c;stroke-width:0;stroke-linecap:butt;stroke-linejoin:miter;stroke-miterlimit:4;stroke-dasharray:none;stroke-dashoffset:0;stroke-opacity:1"
     d="M 3 7 L 3 11 L 8.0390625 11 A 3.5 3.5 0 0 1 11.5 8 A 3.5 3.5 0 0 1 13 8.3417969 L 13 7 L 3 7 z "
     id="rect4206" />
  <rect
     y="12.000019"
     x="3.0000038"
     height="0.99999267"
     width="3.9999926"
     id="rect4208"
     style="opacity:1;fill:#5599ff;fill-opacity:1;stroke:#8c8c8c;stroke-width:0;stroke-linecap:butt;stroke-linejoin:miter;stroke-miterlimit:4;stroke-dasharray:none;stroke-dashoffset:0;stroke-opacity:1" />
  <path
     style="opacity:1;fill:#b9b9b9;fill-opacity:1;stroke:none;stroke-width:1;stroke-linecap:square;stroke-linejoin:miter;stroke-miterlimit:4;stroke-dasharray:none;stroke-dashoffset:0;stroke-opacity:1"
     d="M 1 1 L 1 2 L 1 14 L 1 15 L 2 15 L 11.5 15 A 3.5 3.5 0 0 1 9.0507812 14 L 2 14 L 2 2 L 14 2 L 14 9.0546875 A 3.5 3.5 0 0 1 15 11.5 L 15 1 L 2 1 L 1 1 z M 15 11.5 A 3.5 3.5 0 0 1 14.998047 11.527344 L 15 11.527344 L 15 11.5 z "
     id="rect4341" />
  <rect
     y="3.0000131"
     x="3"
     height="1"
     width="8"
     id="rect4355"
     style="opacity:1;fill:#b9b9b8;fill-opacity:1;stroke:none;stroke-width:1;stroke-linecap:square;stroke-linejoin:miter;stroke-miterlimit:4;stroke-dasharray:none;stroke-dashoffset:0;stroke-opacity:1" />
  <rect
     style="opacity:1;fill:#b9b9b9;fill-opacity:1;stroke:none;stroke-width:1;stroke-linecap:square;stroke-linejoin:miter;stroke-miterlimit:4;stroke-dasharray:none;stroke-dashoffset:0;stroke-opacity:1"
     id="rect4357"
     width="8"
     height="1"
     x="3"
     y="4.9999676" />
  <rect
     transform="matrix(0.707005,-0.70720855,0.707005,0.70720855,0,0)"
     rx="1.4972818"
     ry="0.74598861"
     y="17.911816"
     x="-0.66555882"
     height="4.4587736"
     width="1.3376319"
     id="rect4250"
     style="opacity:1;fill:#e8a33d;fill-opacity:1;stroke:none;stroke-width:1.36651576;stroke-linecap:butt;stroke-linejoin:miter;stroke-miterlimit:4;stroke-dasharray:none;stroke-dashoffset:0;stroke-opacity:1" />
  <circle
     cy="11.499987"
     cx="11.5"
     id="path4248"
     style="opacity:1;fill:#5599ff;fill-opacity:1;stroke:none;stroke-width:3.24888873;stroke-linecap:butt;stroke-linejoin:miter;stroke-miterlimit:4;stroke-dasharray:none;stroke-dashoffset:0;stroke-opacity:1"
     r="2.5" />
  <circle
     style="opacity:1;fill:#abd7ff;fill-opacity:1;stroke:none;stroke-width:3.24888873;stroke-linecap:butt;stroke-linejoin:miter;stroke-miterlimit:4;stroke-dasharray:none;stroke-dashoffset:0;stroke-opacity:1"
     id="ellipse4176"
     cx="11.5"
     cy="11.499987"
     r="1.5" />
  <ellipse
     ry="0.50014395"
     rx="0.5"
     cy="10.999856"
     cx="12"
     id="path4252"
     style="opacity:0.60399996;fill:#ffffff;fill-opacity:1;stroke:none;stroke-width:1;stroke-linecap:butt;stroke-linejoin:miter;stroke-miterlimit:4;stroke-dasharray:none;stroke-dashoffset:0;stroke-opacity:1" />
</svg>
